img/decore/download__icon_02.svg

<svg width="208" height="127" viewBox="0 0 208 127" fill="none" xmlns="http://www.w3.org/2000/svg">
<path id="Vector" d="M132.972 9.38405C143.573 11.7454 153.22 13.9561 163.017 16.1164C160.103 10.1377 147.995 7.77631 149.15 3.00334C151.913 -2.17156 157.088 0.5415 159.902 2.29996C164.876 5.46519 169.9 9.03236 173.668 13.4536C186.832 28.9281 193.765 47.7688 200.497 66.6094C204.868 78.9689 208.084 91.5293 207.33 104.693C204.768 150.413 184.269 185.381 142.167 204.624C94.2862 226.479 36.3071 201.207 17.2655 152.071C15.2558 146.896 12.593 141.972 9.87997 137.099C2.64516 124.237 -1.77612 110.923 0.68573 95.9004C2.64516 83.7419 8.27224 73.7438 17.0143 65.3031C18.9737 63.394 21.0336 61.2838 22.2897 58.8722C33.4434 37.8209 50.7768 24.1551 73.0841 16.6189C85.3431 12.4488 97.6524 8.32897 110.112 4.76181C114.584 3.50576 119.608 3.75697 124.381 3.75697C128.4 3.95794 131.917 5.36471 132.972 9.38405ZM141.363 80.8781C131.515 122.679 103.631 142.475 64.8445 149.961C67.2561 157.246 70.773 161.265 77.5054 163.476C81.2735 164.732 85.2929 165.586 89.2117 165.787C130.259 167.897 160.153 125.794 144.88 87.5602C144.026 85.5003 142.769 83.5409 141.363 80.8781ZM100.114 200.001C136.037 201.81 162.263 185.331 180.501 155.738C200.497 123.232 200.146 89.3689 184.319 55.1041C180.501 56.963 176.984 58.7215 173.316 60.5302C174.522 62.4896 175.427 63.9969 176.381 65.5544C182.36 75.6529 186.279 86.4549 187.334 98.2115C189.193 119.162 182.712 137.651 169.9 154.03C155.28 172.72 135.484 184.678 114.835 195.429C111.871 196.987 108.454 197.59 105.189 198.645C103.48 199.047 101.772 199.499 100.114 200.001ZM134.932 35.3088C145.03 38.1726 154.576 42.4934 162.766 49.477C163.72 50.2808 165.429 50.8335 166.584 50.5321C171.407 49.477 181.657 46.9649 179.546 44.0509C175.376 31.7416 151.763 19.9851 134.982 21.643C134.932 25.9136 134.932 30.2344 134.932 35.3088ZM124.381 81.3805C109.761 75.7534 74.3904 100.322 71.2252 117.806C86.2977 115.444 113.83 98.312 122.07 86.0028C123.024 84.596 123.627 82.938 124.381 81.3805ZM125.989 68.7196C119.457 64.65 111.67 62.2886 104.385 64.3485C95.8939 66.7602 87.3026 70.5785 80.118 75.6529C68.8136 83.5911 60.8754 94.7951 56.8058 108.21C55.9014 111.224 54.9971 114.741 58.1623 118.208C59.6696 115.444 60.8754 112.983 62.2319 110.621C76.5508 86.254 96.4465 70.478 125.989 68.7196ZM110.665 21.0401C87.3026 20.0353 69.7179 30.7368 53.6908 47.0151C59.9208 46.2615 65.2464 45.6586 70.572 44.9552C72.9334 44.6538 75.546 44.8045 77.5054 43.7494C86.9006 38.7252 96.8485 35.3088 107.048 33.7011C108.304 29.33 109.459 25.3609 110.665 21.0401ZM163.017 140.565C181.255 117.504 178.592 85.3998 161.258 64.4993C160.555 63.6452 159.399 62.6403 158.395 62.5398C153.672 62.0877 148.949 61.9369 144.277 61.6857C144.93 63.0423 145.583 63.4944 146.236 63.9466C171.558 80.225 178.491 102.884 166.634 130.517C165.228 133.833 164.223 137.249 163.017 140.565ZM54.1932 130.718C46.456 127.151 42.8888 121.222 43.14 113.334C43.2405 109.968 44.0444 106.602 44.999 103.386C47.712 93.9912 53.1381 86.1032 59.1169 78.5167C59.8705 77.5621 60.172 76.3061 60.6744 75.2008C48.6666 80.9786 34.0965 111.274 38.97 132.527C43.14 134.185 47.8628 136.044 52.6357 137.903C53.2386 136.496 53.5903 135.993 53.6406 135.441C53.8918 133.984 53.9923 132.627 54.1932 130.718ZM63.5884 137.601C83.7856 134.587 100.215 126.246 113.428 111.727C105.741 115.696 98.4562 120.619 90.6185 124.186C82.5296 127.854 73.8378 130.216 64.543 133.481C64.4928 133.732 64.1411 135.189 63.5884 137.601ZM81.8262 178.347C98.6572 181.01 114.885 178.699 130.058 171.062C134.279 168.952 137.745 165.284 141.564 162.32C141.262 161.717 140.911 161.164 140.609 160.562C122.874 172.72 102.827 176.84 81.8262 178.347ZM60.8754 165.837C58.2628 160.411 55.7507 155.236 53.0879 149.659C49.7719 148.956 46.0038 148.152 41.9342 147.298C45.1497 158.753 48.2647 161.818 60.8754 165.837ZM35.3526 72.2365C44.0444 67.0114 52.8367 61.6857 62.1314 56.0587C48.5159 54.8026 39.7236 60.3292 35.3526 72.2365ZM10.0307 115.093C10.7341 105.798 11.3872 97.3574 12.1409 87.7612C8.32248 97.0559 7.31764 105.446 10.0307 115.093ZM125.838 25.7126C119.206 26.1648 119.005 26.416 118.201 32.9474C120.06 33.1484 121.919 33.3494 124.532 33.6508C124.984 30.8875 125.386 28.6266 125.838 25.7126Z" fill="black"/>
</svg>

<svg width="208" height="127" fill="none" xmlns="http://www.w3.org/2000/svg"><path d="M132.972 9.384c10.601 2.361 20.248 4.572 30.045 6.732-2.914-5.978-15.022-8.34-13.867-13.113 2.763-5.175 7.938-2.462 10.752-.703 4.974 3.165 9.998 6.732 13.766 11.154 13.164 15.474 20.097 34.315 26.829 53.155 4.371 12.36 7.587 24.92 6.833 38.084-2.562 45.72-23.061 80.688-65.163 99.931-47.88 21.855-105.86-3.417-124.901-52.553-2.01-5.175-4.673-10.099-7.386-14.972C2.645 124.237-1.776 110.923.686 95.9c1.96-12.158 7.586-22.156 16.328-30.597 1.96-1.909 4.02-4.02 5.276-6.43C33.443 37.82 50.777 24.154 73.084 16.618c12.26-4.17 24.568-8.29 37.028-11.857 4.472-1.256 9.496-1.005 14.269-1.005 4.019.2 7.536 1.608 8.591 5.627zm8.391 71.494c-9.848 41.801-37.732 61.597-76.519 69.083 2.412 7.285 5.929 11.304 12.661 13.515 3.769 1.256 7.788 2.11 11.707 2.311 41.047 2.11 70.941-39.993 55.668-78.227-.854-2.06-2.111-4.02-3.517-6.682zm-41.249 119.123c35.923 1.809 62.149-14.67 80.387-44.263 19.996-32.506 19.645-66.37 3.818-100.634-3.818 1.859-7.335 3.617-11.003 5.426 1.206 1.96 2.111 3.467 3.065 5.024 5.979 10.099 9.898 20.9 10.953 32.657 1.859 20.951-4.622 39.44-17.434 55.819-14.62 18.69-34.416 30.648-55.065 41.399-2.964 1.558-6.381 2.161-9.646 3.216a83.81 83.81 0 00-5.075 1.356zm34.818-164.692c10.098 2.864 19.644 7.184 27.834 14.168.954.804 2.663 1.357 3.818 1.055 4.823-1.055 15.073-3.567 12.962-6.481-4.17-12.31-27.783-24.066-44.564-22.408-.05 4.27-.05 8.591-.05 13.666zM124.381 81.38c-14.62-5.628-49.99 18.941-53.156 36.425 15.073-2.362 42.605-19.494 50.845-31.803.954-1.407 1.557-3.065 2.311-4.623zm1.608-12.661c-6.532-4.07-14.319-6.431-21.604-4.371-8.491 2.411-17.082 6.23-24.267 11.304-11.304 7.938-19.243 19.142-23.312 32.557-.905 3.014-1.809 6.531 1.356 9.998 1.508-2.764 2.713-5.225 4.07-7.587 14.318-24.366 34.215-40.142 63.757-41.9zm-15.324-47.68c-23.362-1.005-40.947 9.697-56.974 25.975 6.23-.754 11.555-1.356 16.881-2.06 2.361-.301 4.974-.15 6.933-1.206 9.396-5.024 19.344-8.44 29.543-10.048 1.256-4.371 2.411-8.34 3.617-12.66zm52.352 119.525c18.238-23.061 15.575-55.165-1.759-76.066-.703-.854-1.859-1.859-2.863-1.96-4.723-.451-9.446-.602-14.118-.853.653 1.356 1.306 1.808 1.959 2.26 25.322 16.279 32.255 38.938 20.398 66.571-1.406 3.316-2.411 6.732-3.617 10.048zm-108.824-9.847c-7.737-3.567-11.304-9.496-11.053-17.384.1-3.366.904-6.732 1.859-9.948 2.713-9.395 8.14-17.283 14.118-24.87.754-.954 1.055-2.21 1.557-3.315-12.007 5.778-26.578 36.073-21.704 57.326a2133 2133 0 0013.666 5.376c.603-1.407.954-1.91 1.005-2.462.25-1.457.351-2.814.552-4.723zm9.395 6.883c20.198-3.014 36.627-11.355 49.84-25.874-7.687 3.969-14.972 8.892-22.81 12.459-8.088 3.668-16.78 6.03-26.075 9.295-.05.251-.402 1.708-.955 4.12zm18.238 40.746c16.831 2.663 33.059.352 48.232-7.285 4.221-2.11 7.687-5.778 11.506-8.742-.302-.603-.653-1.156-.955-1.758-17.735 12.158-37.782 16.278-58.783 17.785zm-20.95-12.51c-2.613-5.426-5.125-10.601-7.788-16.178-3.316-.703-7.084-1.507-11.154-2.361 3.216 11.455 6.33 14.52 18.941 18.539zm-25.523-93.6c8.691-5.226 17.484-10.551 26.778-16.178-13.615-1.256-22.407 4.27-26.778 16.178zM10.03 115.093c.703-9.295 1.356-17.736 2.11-27.332-3.819 9.295-4.823 17.685-2.11 27.332zm115.807-89.38c-6.632.452-6.833.703-7.637 7.234 1.859.201 3.718.402 6.331.704.452-2.764.854-5.024 1.306-7.938z" fill="#000"/></svg>
